src/lib/packages/icons/src/assets/filled/phone-1.svg

<svg width="24" height="24" viewBox="0 0 24 24" fill="none" xmlns="http://www.w3.org/2000/svg">
<path d="M17.6249 14.174L20.268 15.75C20.814 16.076 21.0959 16.71 20.9709 17.334C20.4599 19.893 17.89 21.533 15.373 20.842C9.43395 19.212 4.79484 14.587 3.15884 8.635C2.46684 6.117 4.10495 3.54498 6.66495 3.03298L6.68179 3.02999C7.30679 2.90499 7.94395 3.18799 8.26895 3.73699L9.83194 6.376C10.3879 7.314 10.1118 8.52398 9.20279 9.12798L7.5419 10.233C8.7139 13.04 10.9538 15.289 13.7528 16.459L14.8678 14.794C15.4768 13.887 16.6869 13.615 17.6249 14.174ZM18.8668 9.385V3.385C18.8668 3.083 18.6859 2.81099 18.4079 2.69399C18.1309 2.57699 17.8089 2.63698 17.5939 2.84798L16.0939 4.311C15.7969 4.6 15.791 5.075 16.08 5.372C16.371 5.668 16.846 5.675 17.141 5.385L17.3678 5.16399V9.38399C17.3678 9.79799 17.7038 10.134 18.1178 10.134C18.5318 10.134 18.8668 9.8 18.8668 9.385Z" fill="currentColor"/>
</svg>

<svg xmlns="http://www.w3.org/2000/svg" width="24" height="24" fill="none"><path fill="currentColor" d="m17.625 14.174 2.643 1.576c.546.326.828.96.703 1.584-.511 2.559-3.081 4.199-5.598 3.508A17.442 17.442 0 0 1 3.159 8.635c-.692-2.518.946-5.09 3.506-5.602l.017-.003a1.502 1.502 0 0 1 1.587.707l1.563 2.639a2.05 2.05 0 0 1-.63 2.752l-1.66 1.105a11.602 11.602 0 0 0 6.21 6.226l1.116-1.665a2.053 2.053 0 0 1 2.757-.62Zm1.242-4.789v-6a.75.75 0 0 0-1.273-.537l-1.5 1.463a.75.75 0 1 0 1.047 1.074l.227-.221v4.22a.75.75 0 0 0 1.499.001Z"/></svg>
